X: 9
T: Gavotte t3.1 Des Montagnes  Squiban1 orig Am
C: trad Breton, fr Didier Squiban
S: Ker Eon: Suite de Gavottes des Montagnes set by Didier Squiban
W: https://www.youtube.com/watch?v=inQ6gJiGtAs
R:Gavotte
R:Hornpipe
N: recording is at 175
Q: 1/4=165  "     should be swung"
G:Lark23
M: 2/4
L: 1/8
K: Emin
EFGA Bc (3B/c/B/ A|GEGF E2E2|EFGA Bc (3B/c/B/ A|GEGF E2E2||
|:EFGA Bcd2|c/B/A cB G2G2|EFGA Bc (3B/c/B/ A|GEGF E2E2:|

